studios/france-tv-slash/primary.svg

<?xml version="1.0" encoding="UTF-8" standalone="no"?>
<svg
   width="1000"
   height="1500"
   viewBox="0 0 264.58333 396.87501"
   version="1.1"
   id="svg8"
   inkscape:version="1.2 (dc2aedaf03, 2022-05-15)"
   sodipodi:docname="primary.svg"
   xml:space="preserve"
   xmlns:inkscape="http://www.inkscape.org/namespaces/inkscape"
   xmlns:sodipodi="http://sodipodi.sourceforge.net/DTD/sodipodi-0.dtd"
   xmlns:xlink="http://www.w3.org/1999/xlink"
   xmlns="http://www.w3.org/2000/svg"
   xmlns:svg="http://www.w3.org/2000/svg"
   xmlns:rdf="http://www.w3.org/1999/02/22-rdf-syntax-ns#"
   xmlns:cc="http://creativecommons.org/ns#"
   xmlns:dc="http://purl.org/dc/elements/1.1/"><defs
     id="defs2"><inkscape:path-effect
       effect="fillet_chamfer"
       id="path-effect3429"
       is_visible="true"
       lpeversion="1"
       satellites_param="F,0,0,1,0,6.6145833,0,1 @ F,0,0,1,0,6.6145833,0,1 @ F,0,0,1,0,6.6145833,0,1 @ F,0,0,1,0,6.6145833,0,1"
       unit="px"
       method="auto"
       mode="F"
       radius="25"
       chamfer_steps="1"
       flexible="false"
       use_knot_distance="true"
       apply_no_radius="true"
       apply_with_radius="true"
       only_selected="false"
       hide_knots="false"
       nodesatellites_param="F,0,0,1,0,6.6145833,0,1 @ F,0,0,1,0,6.6145833,0,1 @ F,0,0,1,0,6.6145833,0,1 @ F,0,0,1,0,6.6145833,0,1" /><inkscape:path-effect
       effect="fillet_chamfer"
       id="path-effect3427"
       is_visible="true"
       lpeversion="1"
       satellites_param="F,1,0,1,0,0.03,0,1 @ F,1,0,1,0,0.03,0,1 @ F,1,0,1,0,0.03,0,1 @ F,1,0,1,0,0.03,0,1"
       unit="px"
       method="auto"
       mode="F"
       radius="15"
       chamfer_steps="1"
       flexible="false"
       use_knot_distance="true"
       apply_no_radius="true"
       apply_with_radius="true"
       only_selected="false"
       hide_knots="false"
       nodesatellites_param="F,1,0,1,0,0.03,0,1 @ F,1,0,1,0,0.03,0,1 @ F,1,0,1,0,0.03,0,1 @ F,1,0,1,0,0.03,0,1" /><inkscape:path-effect
       effect="fillet_chamfer"
       id="path-effect1210"
       is_visible="true"
       lpeversion="1"
       satellites_param="F,1,0,1,0,0.02,0,1 @ F,1,0,1,0,0.02,0,1 @ F,1,0,1,0,0.02,0,1 @ F,1,0,1,0,0.02,0,1"
       unit="px"
       method="auto"
       mode="F"
       radius="2"
       chamfer_steps="1"
       flexible="true"
       use_knot_distance="true"
       apply_no_radius="true"
       apply_with_radius="true"
       only_selected="false"
       hide_knots="false"
       nodesatellites_param="F,1,0,1,0,0.02,0,1 @ F,1,0,1,0,0.02,0,1 @ F,1,0,1,0,0.02,0,1 @ F,1,0,1,0,0.02,0,1" /><inkscape:path-effect
       effect="fillet_chamfer"
       id="path-effect1191"
       is_visible="true"
       lpeversion="1"
       satellites_param="F,1,0,1,0,0.03,0,1 @ F,1,0,1,0,0.03,0,1 @ F,1,0,1,0,0.03,0,1 @ F,1,0,1,0,0.03,0,1"
       unit="px"
       method="auto"
       mode="F"
       radius="3"
       chamfer_steps="1"
       flexible="true"
       use_knot_distance="true"
       apply_no_radius="true"
       apply_with_radius="true"
       only_selected="false"
       hide_knots="false"
       nodesatellites_param="F,1,0,1,0,0.03,0,1 @ F,1,0,1,0,0.03,0,1 @ F,1,0,1,0,0.03,0,1 @ F,1,0,1,0,0.03,0,1" /><linearGradient
       inkscape:collect="always"
       id="linearGradient847"><stop
         style="stop-color:#ffffff;stop-opacity:1;"
         offset="0"
         id="stop843" /><stop
         style="stop-color:#ededed;stop-opacity:1;"
         offset="1"
         id="stop845" /></linearGradient><radialGradient
       inkscape:collect="always"
       xlink:href="#linearGradient847"
       id="radialGradient849"
       cx="26.375103"
       cy="97.113945"
       fx="26.375103"
       fy="97.113945"
       r="132.29167"
       gradientTransform="matrix(0,3.0734875,-2.0099162,0,221.56598,-34.611386)"
       gradientUnits="userSpaceOnUse" /></defs><sodipodi:namedview
     id="base"
     pagecolor="#757575"
     bordercolor="#666666"
     borderopacity="1.0"
     inkscape:pageopacity="1"
     inkscape:pageshadow="2"
     inkscape:zoom="0.35483371"
     inkscape:cx="54.95532"
     inkscape:cy="963.83176"
     inkscape:document-units="mm"
     inkscape:current-layer="layer1"
     inkscape:document-rotation="0"
     showgrid="false"
     units="px"
     inkscape:showpageshadow="false"
     inkscape:pagecheckerboard="false"
     inkscape:lockguides="true"
     inkscape:window-width="1920"
     inkscape:window-height="1017"
     inkscape:window-x="-8"
     inkscape:window-y="-8"
     inkscape:window-maximized="1"
     showguides="true"
     inkscape:guide-bbox="true"
     inkscape:deskcolor="#757575"><sodipodi:guide
       position="0,396.875"
       orientation="0,1000"
       inkscape:locked="true"
       id="guide833" /><sodipodi:guide
       position="264.58333,396.875"
       orientation="1500,0"
       inkscape:locked="true"
       id="guide835" /><sodipodi:guide
       position="264.58333,0"
       orientation="0,-1000"
       inkscape:locked="true"
       id="guide837" /><sodipodi:guide
       position="0,0"
       orientation="-1500,0"
       inkscape:locked="true"
       id="guide839" /><sodipodi:guide
       position="275.56944,291.04167"
       orientation="0,1"
       id="guide1075"
       inkscape:label=""
       inkscape:locked="true"
       inkscape:color="rgb(0,0,255)" /><sodipodi:guide
       position="323.19316,105.83333"
       orientation="0,1"
       id="guide1077"
       inkscape:label=""
       inkscape:locked="true"
       inkscape:color="rgb(0,0,255)" /><sodipodi:guide
       position="39.6875,280.99221"
       orientation="-1,0"
       id="guide1079"
       inkscape:label=""
       inkscape:locked="true"
       inkscape:color="rgb(0,0,255)" /><sodipodi:guide
       position="224.89583,283.67412"
       orientation="-1,0"
       id="guide1081"
       inkscape:label=""
       inkscape:locked="true"
       inkscape:color="rgb(0,0,255)" /></sodipodi:namedview><metadata
     id="metadata5"><rdf:RDF><cc:Work
         rdf:about=""><dc:format>image/svg+xml</dc:format><dc:type
           rdf:resource="http://purl.org/dc/dcmitype/StillImage" /></cc:Work></rdf:RDF></metadata><g
     inkscape:label="Layer 1"
     inkscape:groupmode="layer"
     id="layer1"><rect
       style="opacity:0.98;fill:url(#radialGradient849);fill-opacity:1;stroke-width:2.64583"
       id="background"
       width="264.58334"
       height="396.875"
       x="-5.0862632e-06"
       y="-4.7961635e-14" /><g
       style="fill:none"
       id="logo"
       transform="matrix(2.2586406,0,0,2.2586406,67.468966,105.83334)"><path
         d="m 39.495972,22.36381 c 14.4695,8.4305 19.413,27.0359 11.0776,41.6077 -8.3353,14.5717 -26.8462,19.5501 -41.3157997,11.1559 z"
         id="path2"
         inkscape:connector-curvature="0"
         style="clip-rule:evenodd;fill:#ffffff;fill-rule:evenodd" /><path
         d="m 13.310272,73.93191 c 5.7225,2.5841 12.0997,3.1074 18.2393,1.4516 7.0548,-1.9029 12.9451,-6.4561 16.5854,-12.8212 7.0412,-12.3095 3.5433,-27.8934 -7.6463,-36.0578 z m 11.1043,8.068 c -5.7087,0 -11.3434,-1.5045 -16.4213997,-4.4508 l -2.4385,-1.415 32.9489997,-57.4979 2.4363,1.4197 c 15.7152,9.1568 21.129,29.4938 12.0688,45.3337 -4.3915,7.6784 -11.4959,13.1704 -20.0042,15.4651 -2.8413,0.766 -5.725,1.1452 -8.59,1.1452 z"
         id="path4"
         inkscape:connector-curvature="0"
         style="clip-rule:evenodd;fill:#232323;fill-rule:evenodd" /><path
         d="M 17.891772,59.63631 C 3.4335723,51.20981 -1.5059277,32.61331 6.8227723,18.04851 15.151572,3.4834104 33.683972,-1.5285896 48.141872,6.8616104 Z"
         id="path6"
         inkscape:connector-curvature="0"
         style="clip-rule:evenodd;fill:#5ae1ff;fill-rule:evenodd;fill-opacity:1" /><path
         d="m 32.991472,5.6615104 c -9.4657,0 -18.6805,4.9485996 -23.7332997,13.7866996 -7.0361,12.3068 -3.54,27.8873 7.6418997,36.0497 l 27.1928,-47.4509996 c -3.5781,-1.612 -7.3599,-2.3854 -11.1014,-2.3854 z m -14.1092,57.7020996 -2.4342,-1.419 C 0.74407233,52.79051 -4.6659277,32.45841 4.3878723,16.62201 13.459272,0.75551037 33.655172,-4.7137696 49.407672,4.4295104 l 2.4375,1.4147 z"
         id="path8"
         inkscape:connector-curvature="0"
         style="clip-rule:evenodd;fill:#232323;fill-rule:evenodd" /></g><path
       id="border"
       style="opacity:0.98;fill:#5ae1ff;fill-opacity:1;stroke-width:46.3438"
       d="M 49.832031 25 A 25 25 0 0 0 25 50 L 25 1450 A 25 25 0 0 0 50 1475 L 950 1475 A 25 25 0 0 0 975 1450 L 975 50 A 25 25 0 0 0 950 25 L 50 25 A 25 25 0 0 0 49.832031 25 z M 73.542969 50 A 23.68421 24.137931 0 0 1 73.683594 50 L 926.31641 50 A 23.68421 24.137931 0 0 1 950 74.138672 L 950 1425.8613 A 23.68421 24.137931 0 0 1 926.31641 1450 L 73.683594 1450 A 23.68421 24.137931 0 0 1 50 1425.8613 L 50 74.138672 A 23.68421 24.137931 0 0 1 73.542969 50 z "
       transform="scale(0.26458333)" /></g></svg>

<svg xmlns="http://www.w3.org/2000/svg" xmlns:xlink="http://www.w3.org/1999/xlink" xml:space="preserve" width="1000" height="1500" viewBox="0 0 264.583 396.875"><defs><radialGradient xlink:href="#a" id="b" cx="26.375" cy="97.114" r="132.292" fx="26.375" fy="97.114" gradientTransform="matrix(0 3.07349 -2.00992 0 221.566 -34.611)" gradientUnits="userSpaceOnUse"/><linearGradient id="a"><stop offset="0" style="stop-color:#fff;stop-opacity:1"/><stop offset="1" style="stop-color:#ededed;stop-opacity:1"/></linearGradient></defs><path d="M0 0h264.583v396.875H0z" style="opacity:.98;fill:url(#b);fill-opacity:1;stroke-width:2.64583"/><g style="fill:none"><path d="M39.496 22.364c14.47 8.43 19.413 27.036 11.078 41.608S23.727 83.522 9.258 75.127z" style="clip-rule:evenodd;fill:#fff;fill-rule:evenodd" transform="translate(67.469 105.833)scale(2.25864)"/><path d="M13.31 73.932c5.723 2.584 12.1 3.107 18.24 1.452 7.054-1.903 12.945-6.457 16.585-12.822 7.041-12.31 3.543-27.893-7.646-36.057zM24.415 82c-5.71 0-11.344-1.505-16.422-4.45l-2.438-1.416 32.949-57.498 2.436 1.42C56.655 29.213 62.069 49.55 53.009 65.39c-4.392 7.678-11.496 13.17-20.004 15.465A33 33 0 0 1 24.415 82" style="clip-rule:evenodd;fill:#232323;fill-rule:evenodd" transform="translate(67.469 105.833)scale(2.25864)"/><path d="M17.892 59.636C3.434 51.21-1.506 32.613 6.822 18.05 15.153 3.483 33.685-1.53 48.143 6.862Z" style="clip-rule:evenodd;fill:#5ae1ff;fill-rule:evenodd;fill-opacity:1" transform="translate(67.469 105.833)scale(2.25864)"/><path d="M32.991 5.662c-9.465 0-18.68 4.948-23.733 13.786-7.036 12.307-3.54 27.888 7.642 36.05L44.093 8.047A27 27 0 0 0 32.99 5.662M18.882 63.364l-2.434-1.42C.744 52.792-4.666 32.459 4.388 16.623 13.459.756 33.655-4.714 49.408 4.43l2.437 1.414z" style="clip-rule:evenodd;fill:#232323;fill-rule:evenodd" transform="translate(67.469 105.833)scale(2.25864)"/></g><path d="M49.832 25A25 25 0 0 0 25 50v1400a25 25 0 0 0 25 25h900a25 25 0 0 0 25-25V50a25 25 0 0 0-25-25zm23.711 25a23.684 24.138 0 0 1 .14 0h852.633A23.684 24.138 0 0 1 950 74.139V1425.86a23.684 24.138 0 0 1-23.684 24.14H73.684A23.684 24.138 0 0 1 50 1425.861V74.14A23.684 24.138 0 0 1 73.543 50" style="opacity:.98;fill:#5ae1ff;fill-opacity:1;stroke-width:46.3438" transform="scale(.26458)"/></svg>
